client/public/img/game/winter/obstacles/grenade_box_winter_1.svg

<?xml version="1.0" encoding="UTF-8" standalone="no"?>
<!-- Created with Inkscape (http://www.inkscape.org/) -->

<svg
   width="91.796532"
   height="91.796524"
   viewBox="0 0 24.287833 24.28783"
   version="1.1"
   id="svg1"
   xml:space="preserve"
   xmlns="http://www.w3.org/2000/svg"
   xmlns:svg="http://www.w3.org/2000/svg">
  
  <defs
   id="defs1" />
  
  
  
  
  
  
  
  
  <rect
   ry="0"
   rx="0"
   y="0.69453782"
   x="0.6945343"
   height="22.898762"
   width="22.898762"
   id="rect1527"
   style="fill:#af7a53;fill-opacity:1;fill-rule:nonzero;stroke:none;stroke-width:1.38907;stroke-linecap:round;stroke-linejoin:round;stroke-miterlimit:4;stroke-dasharray:none;stroke-dashoffset:0;stroke-opacity:1;paint-order:normal" /><path
   id="path1562-0-2"
   d="M 4.4454739,0.76635207 V 23.400537"
   style="fill:none;stroke:#342318;stroke-width:1.38102;stroke-linecap:round;stroke-linejoin:round;stroke-miterlimit:4;stroke-dasharray:none;stroke-opacity:1;paint-order:normal" /><rect
   ry="0"
   rx="0"
   y="0.69453782"
   x="0.6945343"
   height="22.898762"
   width="22.898762"
   id="rect9"
   style="fill:none;fill-opacity:1;fill-rule:nonzero;stroke:#342318;stroke-width:1.389;stroke-linecap:round;stroke-linejoin:round;stroke-miterlimit:4;stroke-dasharray:none;stroke-dashoffset:0;stroke-opacity:1;paint-order:normal" /><path
   id="path9"
   d="M 19.678396,0.91134974 V 23.567582"
   style="fill:none;stroke:#342318;stroke-width:1.38169;stroke-linecap:round;stroke-linejoin:round;stroke-miterlimit:4;stroke-dasharray:none;stroke-opacity:1;paint-order:normal" /><path
   id="path10"
   d="M 5.1105744,4.498 H 19.261961"
   style="fill:none;stroke:#342318;stroke-width:1.382;stroke-linecap:round;stroke-linejoin:round;stroke-miterlimit:4;stroke-dasharray:none;stroke-opacity:1;paint-order:normal" /><path
   id="path11"
   d="M 5.0862807,19.732 H 19.193946"
   style="fill:none;stroke:#342318;stroke-width:1.382;stroke-linecap:round;stroke-linejoin:round;stroke-miterlimit:4;stroke-dasharray:none;stroke-opacity:1;paint-order:normal" /><g
   id="g8"
   transform="translate(0.2881587,0.3825353)">
    <rect
   style="fill:#e2cec0;fill-opacity:1;fill-rule:evenodd;stroke:none;stroke-width:0;stroke-linecap:round;stroke-linejoin:round;stroke-dasharray:none;stroke-opacity:1"
   id="rect23"
   width="1.555177"
   height="0.63536268"
   x="3.8237"
   y="15.001119"
   transform="matrix(0.86685555,-0.49855937,0.50144201,0.86519126,0,0)" />
    <path
   style="fill:#e2cec0;fill-opacity:1;fill-rule:evenodd;stroke:none;stroke-width:0;stroke-linecap:round;stroke-linejoin:round;stroke-dasharray:none;stroke-opacity:1"
   d="M 10.728756,10.773944 10.223882,11.064312 9.8116494,12.128666 10.35449,14.81512 9.4957479,14.95597 8.8290082,11.777759 9.684506,10.021598 9.5900695,9.3288598 10.852255,8.6029325 11.523524,9.2109694 v 0.2408302 l 0.481647,0.5602274 z"
   id="path23" />
    <ellipse
   style="fill:#e2cec0;fill-opacity:1;fill-rule:evenodd;stroke:none;stroke-width:0;stroke-linecap:round;stroke-linejoin:round;stroke-dasharray:none;stroke-opacity:1"
   id="circle23"
   cx="4.6666145"
   cy="17.817051"
   transform="matrix(0.86685555,-0.49855937,0.50144201,0.86519126,0,0)"
   rx="2.4937539"
   ry="2.4889669" />
    <path
   style="fill:none;fill-opacity:0.697324;fill-rule:evenodd;stroke:#af7a53;stroke-width:0.318391;stroke-linecap:round;stroke-linejoin:round;stroke-dasharray:none;stroke-opacity:1"
   d="m 10.833045,14.338378 4.293798,-2.469516"
   id="path24" />
    <ellipse
   style="fill:none;fill-opacity:1;fill-rule:evenodd;stroke:#e2cec0;stroke-width:0.53636;stroke-linecap:round;stroke-linejoin:round;stroke-dasharray:none;stroke-opacity:1"
   id="circle24"
   cx="2.7750192"
   cy="14.506399"
   transform="matrix(0.86685555,-0.49855937,0.50144201,0.86519126,0,0)"
   rx="1.1755668"
   ry="1.17331" />
    <ellipse
   style="fill:#e2cec0;fill-opacity:1;fill-rule:evenodd;stroke:none;stroke-width:0;stroke-linecap:round;stroke-linejoin:round;stroke-dasharray:none;stroke-opacity:1"
   id="circle25"
   cx="5.5876837"
   cy="13.145464"
   transform="matrix(0.86685555,-0.49855937,0.50144201,0.86519126,0,0)"
   rx="0.64209259"
   ry="0.64085972" />
  </g><g
   id="rect1533"><path
     style="fill:#342418;stroke-linecap:round;stroke-linejoin:round;paint-order:stroke fill markers"
     d="m 20.78125,3.1933594 -6.113281,2.1230468 a 1.0418992,1.0418992 0 0 0 -0.404297,1.7128907 l 0.326172,0.3320312 -0.04687,0.4804688 a 1.0418992,1.0418992 0 0 0 1.378906,1.0859375 L 22.035156,6.8046875 A 1.0418992,1.0418992 0 0 0 22.523437,5.1914062 L 22.171875,4.7304687 22.164062,4.1640625 A 1.0418992,1.0418992 0 0 0 20.78125,3.1933594 Z"
     id="path3" /><path
     style="fill:#e2cec0;stroke-linecap:round;stroke-linejoin:round;paint-order:stroke fill markers"
     d="m 15.008946,6.300231 6.113981,-2.1222844 0.01209,0.9093772 0.558397,0.7341124 -6.11398,2.1222842 0.09455,-0.9644321 z"
     id="path4" /></g><g
   id="path1538"><path
     style="fill:#342418;stroke-linecap:round;stroke-linejoin:round;paint-order:stroke fill markers"
     d="m 3.7539063,15.517578 a 1.0418992,1.0418992 0 0 0 -1.5117188,0.898438 l -0.013672,0.464843 -0.3789062,0.300782 a 1.0418992,1.0418992 0 0 0 0.1738281,1.746093 l 5.7714844,2.927735 A 1.0418992,1.0418992 0 0 0 9.296875,21.085937 l 0.087891,-0.572265 0.4023438,-0.396485 A 1.0418992,1.0418992 0 0 0 9.5253906,18.447266 Z"
     id="path5" /><path
     style="fill:#e2cec0;stroke-linecap:round;stroke-linejoin:round;paint-order:stroke fill markers"
     d="m 3.2832369,16.446644 5.7708854,2.929445 -0.646382,0.639766 -0.141,0.911492 -5.7708998,-2.929445 0.7600213,-0.601186 z"
     id="path6" /></g>
<path
   style="fill:#c9d1d9;stroke:#a2a5c0;stroke-width:1.389;stroke-linecap:round;stroke-linejoin:round;stroke-dasharray:none;stroke-opacity:1;fill-opacity:1"
   d="M 0.69453428,0.6945378 H 13.967236 C 17.323996,5.8732759 9.1558266,6.1095696 7.3218642,7.9435319 6.5763904,8.6890058 6.5397275,9.9690041 5.802232,10.7065 4.659068,11.849664 0.96619499,14.26545 0.6945343,12.143919 Z"
   id="path1" /><path
   style="fill:#c9d1d9;fill-opacity:1;stroke:#a2a5c0;stroke-width:1.389;stroke-linecap:round;stroke-linejoin:round;stroke-dasharray:none;stroke-opacity:1"
   d="M 23.593296,8.3298413 V 23.5933 h -7.01549 c -1.620134,-1.213151 0.745673,-2.277661 0.138148,-3.49271 -0.920772,-1.841544 -2.039666,-4.409643 -0.483519,-6.354826 0.956208,-1.19526 3.434115,-0.980431 4.213525,-2.279448 0.904047,-1.5067452 0.805407,-4.4181715 3.147336,-3.1364747 z"
   id="path2" /></svg>

<svg xmlns="http://www.w3.org/2000/svg" xml:space="preserve" width="91.797" height="91.797" viewBox="0 0 24.288 24.288"><rect width="22.899" height="22.899" x=".695" y=".695" rx="0" ry="0" style="fill:#af7a53;fill-opacity:1;fill-rule:nonzero;stroke:none;stroke-width:1.38907;stroke-linecap:round;stroke-linejoin:round;stroke-miterlimit:4;stroke-dasharray:none;stroke-dashoffset:0;stroke-opacity:1;paint-order:normal"/><path d="M4.445.766v22.635" style="fill:none;stroke:#342318;stroke-width:1.38102;stroke-linecap:round;stroke-linejoin:round;stroke-miterlimit:4;stroke-dasharray:none;stroke-opacity:1;paint-order:normal"/><rect width="22.899" height="22.899" x=".695" y=".695" rx="0" ry="0" style="fill:none;fill-opacity:1;fill-rule:nonzero;stroke:#342318;stroke-width:1.389;stroke-linecap:round;stroke-linejoin:round;stroke-miterlimit:4;stroke-dasharray:none;stroke-dashoffset:0;stroke-opacity:1;paint-order:normal"/><path d="M19.678.911v22.657" style="fill:none;stroke:#342318;stroke-width:1.38169;stroke-linecap:round;stroke-linejoin:round;stroke-miterlimit:4;stroke-dasharray:none;stroke-opacity:1;paint-order:normal"/><path d="M5.11 4.498h14.152M5.086 19.732h14.108" style="fill:none;stroke:#342318;stroke-width:1.382;stroke-linecap:round;stroke-linejoin:round;stroke-miterlimit:4;stroke-dasharray:none;stroke-opacity:1;paint-order:normal"/><g transform="translate(.288 .383)"><path d="M3.824 15.001h1.555v.635H3.824z" style="fill:#e2cec0;fill-opacity:1;fill-rule:evenodd;stroke:none;stroke-width:0;stroke-linecap:round;stroke-linejoin:round;stroke-dasharray:none;stroke-opacity:1" transform="matrix(.86686 -.49856 .50144 .8652 0 0)"/><path d="m10.729 10.774-.505.29-.412 1.065.542 2.686-.858.141-.667-3.178.856-1.756-.095-.693 1.262-.726.672.608v.24l.481.561z" style="fill:#e2cec0;fill-opacity:1;fill-rule:evenodd;stroke:none;stroke-width:0;stroke-linecap:round;stroke-linejoin:round;stroke-dasharray:none;stroke-opacity:1"/><ellipse cx="4.667" cy="17.817" rx="2.494" ry="2.489" style="fill:#e2cec0;fill-opacity:1;fill-rule:evenodd;stroke:none;stroke-width:0;stroke-linecap:round;stroke-linejoin:round;stroke-dasharray:none;stroke-opacity:1" transform="matrix(.86686 -.49856 .50144 .8652 0 0)"/><path d="m10.833 14.338 4.294-2.47" style="fill:none;fill-opacity:.697324;fill-rule:evenodd;stroke:#af7a53;stroke-width:.318391;stroke-linecap:round;stroke-linejoin:round;stroke-dasharray:none;stroke-opacity:1"/><ellipse cx="2.775" cy="14.506" rx="1.176" ry="1.173" style="fill:none;fill-opacity:1;fill-rule:evenodd;stroke:#e2cec0;stroke-width:.53636;stroke-linecap:round;stroke-linejoin:round;stroke-dasharray:none;stroke-opacity:1" transform="matrix(.86686 -.49856 .50144 .8652 0 0)"/><ellipse cx="5.588" cy="13.145" rx=".642" ry=".641" style="fill:#e2cec0;fill-opacity:1;fill-rule:evenodd;stroke:none;stroke-width:0;stroke-linecap:round;stroke-linejoin:round;stroke-dasharray:none;stroke-opacity:1" transform="matrix(.86686 -.49856 .50144 .8652 0 0)"/></g><path d="m20.781 3.193-6.113 2.123a1.042 1.042 0 0 0-.404 1.713l.326.332-.047.48a1.042 1.042 0 0 0 1.379 1.087l6.113-2.123a1.042 1.042 0 0 0 .488-1.614l-.351-.46-.008-.567a1.042 1.042 0 0 0-1.383-.97" style="fill:#342418;stroke-linecap:round;stroke-linejoin:round;paint-order:stroke fill markers"/><path d="m15.009 6.3 6.114-2.122.012.91.558.733-6.114 2.123.095-.965z" style="fill:#e2cec0;stroke-linecap:round;stroke-linejoin:round;paint-order:stroke fill markers"/><path d="M3.754 15.518a1.042 1.042 0 0 0-1.512.898l-.013.465-.38.3a1.042 1.042 0 0 0 .174 1.747l5.772 2.927a1.042 1.042 0 0 0 1.502-.77l.088-.571.402-.397a1.042 1.042 0 0 0-.262-1.67Z" style="fill:#342418;stroke-linecap:round;stroke-linejoin:round;paint-order:stroke fill markers"/><path d="m3.283 16.447 5.771 2.93-.646.639-.141.911-5.771-2.93.76-.6z" style="fill:#e2cec0;stroke-linecap:round;stroke-linejoin:round;paint-order:stroke fill markers"/><path d="M.695.695h13.272c3.357 5.178-4.811 5.415-6.645 7.249-.746.745-.782 2.025-1.52 2.763C4.66 11.85.966 14.265.695 12.144Z" style="fill:#c9d1d9;stroke:#a2a5c0;stroke-width:1.389;stroke-linecap:round;stroke-linejoin:round;stroke-dasharray:none;stroke-opacity:1;fill-opacity:1"/><path d="M23.593 8.33v15.263h-7.015c-1.62-1.213.745-2.277.138-3.492-.92-1.842-2.04-4.41-.484-6.355.957-1.195 3.435-.98 4.214-2.28.904-1.506.805-4.418 3.147-3.136" style="fill:#c9d1d9;fill-opacity:1;stroke:#a2a5c0;stroke-width:1.389;stroke-linecap:round;stroke-linejoin:round;stroke-dasharray:none;stroke-opacity:1"/></svg>
